styles/4/Numix/128/places/blue-folder-recent.svg

<?xml version="1.0" encoding="UTF-8" standalone="no"?>
<!-- Created with Inkscape (http://www.inkscape.org/) -->

<svg
   xmlns:dc="http://purl.org/dc/elements/1.1/"
   xmlns:cc="http://creativecommons.org/ns#"
   xmlns:rdf="http://www.w3.org/1999/02/22-rdf-syntax-ns#"
   xmlns:svg="http://www.w3.org/2000/svg"
   xmlns="http://www.w3.org/2000/svg"
   xmlns:sodipodi="http://sodipodi.sourceforge.net/DTD/sodipodi-0.dtd"
   xmlns:inkscape="http://www.inkscape.org/namespaces/inkscape"
   width="128"
   height="128"
   id="svg2"
   version="1.1"
   inkscape:version="0.91 r"
   sodipodi:docname="blue-folder-recent.svg"
   inkscape:export-filename="/media/Data/Main/Visuals/Icons/Numix/Desktop/repos/numix-wiki/Gjorgi/Numix-folders/48/New/folder-144.png"
   inkscape:export-xdpi="270"
   inkscape:export-ydpi="270">
  <defs
     id="defs4" />
  <sodipodi:namedview
     id="base"
     pagecolor="#ffffff"
     bordercolor="#666666"
     borderopacity="1.0"
     inkscape:pageopacity="0.0"
     inkscape:pageshadow="2"
     inkscape:zoom="4.5925493"
     inkscape:cx="34.113499"
     inkscape:cy="55.304782"
     inkscape:document-units="px"
     inkscape:current-layer="layer1"
     showgrid="true"
     inkscape:window-width="1280"
     inkscape:window-height="998"
     inkscape:window-x="0"
     inkscape:window-y="0"
     inkscape:window-maximized="1"
     showguides="true"
     inkscape:guide-bbox="true">
    <inkscape:grid
       type="xygrid"
       id="grid2985"
       empspacing="5"
       visible="true"
       enabled="true"
       snapvisiblegridlinesonly="true" />
  </sodipodi:namedview>
  <metadata
     id="metadata7">
    <rdf:RDF>
      <cc:Work
         rdf:about="">
        <dc:format>image/svg+xml</dc:format>
        <dc:type
           rdf:resource="http://purl.org/dc/dcmitype/StillImage" />
        <dc:title />
      </cc:Work>
    </rdf:RDF>
  </metadata>
  <g
     inkscape:label="Layer 1"
     inkscape:groupmode="layer"
     id="layer1"
     transform="translate(0,-924.3622)">
    <path
       style="fill:#1976d2;fill-opacity:1;stroke:none"
       d="m 16,944.36222 94,0 c 4,0 6,1.9995 6,5.99842 l 0,13.9964 c 0,2.2154 -1.8948,1.9994 -4,1.9994 l -96,0 c -2.1052,0 -4,-1.7836 -4,-3.999 l 0,-17.99522 z"
       id="path3811"
       inkscape:connector-curvature="0"
       sodipodi:nodetypes="csssssscc" />
    <path
       style="opacity:0.02999998;fill:#000000;fill-opacity:1;stroke:none"
       d="m 12,956.36244 0,9.9998 104,0 0,-9.9998 z"
       id="path3807"
       inkscape:connector-curvature="0" />
    <path
       style="fill:#1976d2;fill-opacity:1;stroke:none"
       d="m 12,952.36224 0,-9.99996 c 0,-4 1.818182,-6 3.636364,-6 l 20.727272,0 c 1.818182,0 3.636364,2 3.636364,6 l 0,9.99996 z"
       id="rect3760"
       inkscape:connector-curvature="0"
       sodipodi:nodetypes="csssscc" />
    <rect
       style="fill:#42a5f5;fill-opacity:1;stroke:none"
       id="rect2990"
       width="120"
       height="80"
       x="4"
       y="960.36218"
       rx="8"
       ry="6.6666665" />
    <path
       style="opacity:0.1;fill:#ffffff;fill-opacity:1;stroke:none"
       d="m 12,960.36224 c -4.432,0 -8,2.99416 -8,6.6875 l 0,4 c 0,-3.69334 3.568,-6.6875 8,-6.6875 l 104,0 c 4.432,0 8,2.99416 8,6.6875 l 0,-4 c 0,-3.69334 -3.568,-6.6875 -8,-6.6875 l -104,0 z"
       id="rect3004"
       inkscape:connector-curvature="0" />
    <path
       style="opacity:0.05;fill:#000000;fill-opacity:1;stroke:none"
       d="m 40,944.36224 0,4 4,0 66,0 c 4,0 6,2.001 6,6 l 0,-4 c 0,-3.99892 -2,-6 -6,-6 l -66,0 z"
       id="path3781"
       inkscape:connector-curvature="0"
       sodipodi:nodetypes="cccscsscc" />
    <path
       style="opacity:0.05;fill:#000000;fill-opacity:1;stroke:none"
       d="m 15.625,936.36224 c -1.818182,0 -3.625,2 -3.625,6 l 0,4 c 0,-4 1.806818,-6 3.625,-6 l 20.75,0 c 1.818182,0 3.625,2 3.625,6 l 0,-4 c 0,-4 -1.806818,-6 -3.625,-6 l -20.75,0 z"
       id="path3801"
       inkscape:connector-curvature="0" />
    <path
       style="opacity:1.0;fill:#2a74b9;fill-opacity:1;stroke:none"
       d="M 36 48 L 36 68 L 56 68 L 48.4375 60.4375 C 52.42195 56.464436 57.931016 54 64 54 C 76.150264 54 86 63.84974 86 76 C 86 88.1503 76.150264 98 64 98 C 51.849736 98 42 88.1503 42 76 C 42 75.32473 42.06544 74.65977 42.125 74 L 36.0625 74 C 36.01594 74.66014 36 75.32801 36 76 C 36 91.464 48.536028 104 64 104 C 79.463972 104 92 91.464 92 76 C 92 60.53603 79.463972 48 64 48 C 56.263871 48 49.283735 51.149557 44.21875 56.21875 L 36 48 z M 64.03125 57.84375 A 4.0004 4.0004 0 0 0 63.625 57.875 A 4.0004 4.0004 0 0 0 63.125 58 A 4.0004 4.0004 0 0 0 60 62 L 60 76.75 A 4.0004 4.0004 0 0 0 60 77.125 A 4.0004 4.0004 0 0 0 60.5 80.125 A 4.0004 4.0004 0 0 0 60.625 80.25 A 4.0004 4.0004 0 0 0 60.75 80.5 A 4.0004 4.0004 0 0 0 60.875 80.625 A 4.0004 4.0004 0 0 0 61 80.75 A 4.0004 4.0004 0 0 0 61.125 80.875 A 4.0004 4.0004 0 0 0 61.25 81 A 4.0004 4.0004 0 0 0 61.5 81.125 A 4.0004 4.0004 0 0 0 61.625 81.25 A 4.0004 4.0004 0 0 0 61.75 81.375 A 4.0004 4.0004 0 0 0 62 81.5 A 4.0004 4.0004 0 0 0 62.5 81.75 L 72.375 87.5 A 4.0311289 4.0311289 0 1 0 76.375 80.5 L 68 75.625 L 68 62 A 4.0004 4.0004 0 0 0 64.03125 57.84375 z "
       transform="translate(0,924.3622)"
       id="path4017" />
  </g>
</svg>

<!-- Created with Inkscape (http://www.inkscape.org/) -->
<svg xmlns="http://www.w3.org/2000/svg" viewBox="0 0 128 128">
 <g transform="translate(0,-924.3622)">
  <path d="m 16 944.36 94 0 c 4 0 6 2 6 5.998 l 0 13.996 c 0 2.215 -1.895 1.999 -4 1.999 l -96 0 c -2.105 0 -4 -1.784 -4 -3.999 l 0 -17.995 z" style="fill:#1976d2;fill-opacity:1;stroke:none"/>
  <path d="m 12 956.36 0 10 104 0 0 -10 z" style="fill:#000;opacity:0.03;fill-opacity:1;stroke:none"/>
  <path d="m 12 952.36 0 -10 c 0 -4 1.818 -6 3.636 -6 l 20.727 0 c 1.818 0 3.636 2 3.636 6 l 0 10 z" style="fill:#1976d2;fill-opacity:1;stroke:none"/>
  <rect width="120" height="80" x="4" y="960.36" rx="8" ry="6.667" style="fill:#42a5f5;fill-opacity:1;stroke:none"/>
  <path d="m 12 960.36 c -4.432 0 -8 2.994 -8 6.688 l 0 4 c 0 -3.693 3.568 -6.688 8 -6.688 l 104 0 c 4.432 0 8 2.994 8 6.688 l 0 -4 c 0 -3.693 -3.568 -6.688 -8 -6.688 l -104 0 z" style="fill:#fff;opacity:0.1;fill-opacity:1;stroke:none"/>
  <path d="m 40 944.36 0 4 4 0 66 0 c 4 0 6 2 6 6 l 0 -4 c 0 -3.999 -2 -6 -6 -6 l -66 0 z" style="fill:#000;opacity:0.05;fill-opacity:1;stroke:none"/>
  <path d="m 15.625 936.36 c -1.818 0 -3.625 2 -3.625 6 l 0 4 c 0 -4 1.807 -6 3.625 -6 l 20.75 0 c 1.818 0 3.625 2 3.625 6 l 0 -4 c 0 -4 -1.807 -6 -3.625 -6 l -20.75 0 z" style="fill:#000;opacity:0.05;fill-opacity:1;stroke:none"/>
  <path d="m 36 48 l 0 20 l 20 0 l -7.563 -7.563 c 3.984 -3.973 9.494 -6.438 15.563 -6.438 c 12.15 0 22 9.85 22 22 c 0 12.15 -9.85 22 -22 22 c -12.15 0 -22 -9.85 -22 -22 c 0 -0.675 0.065 -1.34 0.125 -2 l -6.06 0 c -0.047 0.66 -0.063 1.328 -0.063 2 c 0 15.464 12.536 28 28 28 c 15.464 0 28 -12.536 28 -28 c 0 -15.464 -12.536 -28 -28 -28 c -7.736 0 -14.716 3.15 -19.781 8.219 l -8.219 -8.219 z m 28.03 9.844 a 4 4 0 0 0 -0.406 0.031 a 4 4 0 0 0 -0.5 0.125 a 4 4 0 0 0 -3.125 4 l 0 14.75 a 4 4 0 0 0 0 0.375 a 4 4 0 0 0 0.5 3 a 4 4 0 0 0 0.125 0.125 a 4 4 0 0 0 0.125 0.25 a 4 4 0 0 0 0.125 0.125 a 4 4 0 0 0 0.125 0.125 a 4 4 0 0 0 0.125 0.125 a 4 4 0 0 0 0.125 0.125 a 4 4 0 0 0 0.25 0.125 a 4 4 0 0 0 0.125 0.125 a 4 4 0 0 0 0.125 0.125 a 4 4 0 0 0 0.25 0.125 a 4 4 0 0 0 0.5 0.25 l 9.875 5.75 a 4.03 4.03 0 1 0 4 -7 l -8.375 -4.875 l 0 -13.625 a 4 4 0 0 0 -3.969 -4.156 z" transform="translate(0,924.3622)" style="fill:#2a74b9;opacity:1;fill-opacity:1;stroke:none"/>
 </g>
</svg>
